X:1
T:Title
%%score { ( 1 4 ) | ( 2 3 ) }
L:1/8
Q:1/4=100
M:4/4
K:Ab
V:1 treble nm="Grand Piano"
V:4 treble 
V:2 bass 
V:3 bass 
V:1
 [CE]2 [_C=D]>E [EAc]2 [_GB]>[Ac] | [FAd]2 [DF]>[FA] [EFc]2 [DFB]>[FB] | %2
w: E.~S.~Lorenz * * * * *||
 [CEA]2 [CEG]>[EF] [DEG]2 [G,DF]>[DE] | [DF]2 [A,CE]2 [CE]2 z2 | [CE]2 [_C=D]>E [EAc]2 [_GB]>[Ac] | %5
w: |||
 [FAd]2 [DF]>[FA] [EFc]2 [DFB]>[FB] | [CEA]2 [CEG]>[EF] [B,DG]2 [G,DF]>[DE] | %7
w: ||
 [EGc]2 [DEGB]2 [CEA]4 | [Ec]2 _c>=c [CA]2 [CF][CF] | [DG]6[K:bass] z2 | d2 c>d B2 AB | c6 z2 | %12
w: |||||
 e2 fe c2 B>A | [Fc]2 [DFB]>[CF=A] [EFc]2 [DFB]>F | A2 G>F E2 B>B |[M:3/4] [CA]6 |] %16
w: ||||
V:2
 A,,2 z z/ C/ A,,2 z z/ _G/ | D,2 z z/ D/ D,,2 z z/ D/ | z2 E,2 z2 E,2 | A,,2 E,2 A,,2 z2 | %4
 A,,2 z z/ C/ A,,2 z z/ _G/ | z2 [F,A,]2 z2 D,2 | z2 E,2 z2 E,2 | E,,2 E,2 A,,4 | %8
 z2 =D>E [A,,E,]3 [A,,E,] | [B,,E,]2 B,,>B,, B,,2 z2 | %10
 [B,E]2 [=A,E]>[B,E] [E,G,D]2 [_A,C][K:treble][G,E] | [A,E]2 [A,E][A,D] [A,C]2 [A,E]2 | %12
 [A,CA]2 [A,DA][A,CA] [A,EA]2 [A,DG]>[A,C_G] | [D,A,]2 D,>D, D,2 D,>[D,A,] | %14
 [E,CE]2 [E,B,D]>[E,A,D] [E,G,D]2 [E,G,D]>[E,G,D] |[M:3/4] [A,,A,]6 |] %16
V:3
 z2 [E,A,]2 z2 [E,A,]2 | z2 [D,F,A,]2 z2 D,2 | E,,2 z z/ C/ E,,2 z z/ G,/ | x8 | %4
 z2 [E,A,]2 z2 [E,A,]2 | D,2 z z/ D/ D,,2 z z/ D/ | E,,2 z z/ C/ E,,2 z z/ G,/ | x8 | [A,,A,]4 z4 | %9
 x8 | E,4 z2 E,2[K:treble] | x8 | x8 | x8 | x8 |[M:3/4] x6 |] %16
V:4
 x8 | x8 | z2 A,2 z4 | x8 | x8 | x8 | z2 A,2 z4 | x8 | x8 | z2[K:bass] E,>E, E,2 z2 | x8 | %11
 z2 AF E2 c2 | x8 | x8 | x8 |[M:3/4] x6 |] %16

